X:1
T:Minuet in G Major
T:Christian Petzold
T:Notebooks for Anna Magdalena Bach BWV Anhang 114
T:Public Domain (PianoXML typeset)
Z:Public Domain (PianoXML typeset)
%%score { ( 1 3 ) | ( 2 4 ) }
L:1/8
Q:1/4=126
M:3/4
K:G
V:1 treble nm="Piano"
V:3 treble 
V:2 bass 
V:4 bass 
V:1
"^Allegro"!mf! d2 (GABc | d2) .G2 .G2 | e2 (cdef | g2) .G2 .G2 | c2 (dcBA | B2) (cBAG | F2) (GABG | %7
 B2 A4) | d2 (GABc | d2) .G2 .G2 | e2 (cdef | g2) G2 G2 | c2 (dcBA | B2) (cBAG | A2) (BAGF | G6) :: %16
!f! b2 (gabg | a2) (defd | g2) (efgd | ^c2) (Bc A2) | (AB^cdef | g2) f2 e2 | f2 A2 ^c2 | d6 | %24
!p! x6 | x6 | d2 c2 B2 | (AGFG A2) |!<(! (DEFGAB | c2)!<)! B2 A2 | (Bd G2) F2 | [B,DG]6 :| %32
V:2
 [G,B,D]4 A,2 | B,6 | C6 | B,6 | A,6 | G,6 | (D2 B,2 G,2 | D2) (D,CB,A, | B,4 A,2 | G,2) B,2 G,2 | %10
 (C6 | B,2 CB,A,G, | A,4 F,2 | G,4 B,2 | C2) D2 D,2 | G,4 G,,2 :: (G,6 | F,6 | E,2) G,2 E,2 | %19
 (A,4 A,,2) | (A,6 | .B,2) .D2 .^C2 | .D2 .F,2 .A,2 | (D2 D,2 C2 | B,4) B,2 | C4 C2 | B,2 A,2 G,2 | %27
 D4 z2 | (D,6 | E,2) G,2 F,2 | (G,2 B,,2) D,2 | G,2 D,2 G,,2 :| %32
V:3
 x6 | x6 | x6 | x6 | x6 | x6 | x6 | x6 | x6 | x6 | x6 | x6 | x6 | x6 | x6 | x6 :: x6 | x6 | x6 | %19
 x6 | x6 | x6 | x6 | x6 | d2 (GF G2) | e2 (GF G2) | x6 | x6 | x6 | x6 | x6 | x6 :| %32
V:4
 x6 | x6 | x6 | x6 | x6 | x6 | x6 | x6 | x6 | x6 | x6 | x6 | x6 | x6 | x6 | x6 :: x6 | x6 | x6 | %19
 x6 | x6 | x6 | x6 | x6 | z2 D4 | z2 E4 | x6 | x6 | x4 F,2 | x6 | x6 | x6 :| %32

